!!!!SEGMENT: pl-cz--iii-47--003_bulakowski-stefan--msza-as-justus-ut-palma.krn
!!!cenid: 18xx:694
!!!COM: Bułakowski, Stefan
!!!COM-rismid: pe30085804
!!!CDT: 1784-1852
!!!CNT:
!!!OPR: Msza As
!!!OTL: Justus ut palma
!!!OMV: 003
!!!PDT:
!!!AGN: Sacred; Mass
!!!SMS-siglum: PL-CZ
!!!SMS-shelfmark: III-47
!!!SMS-shelfwork: 001-003 M
!!!SMS-variant:
!!!SMS-altvar:
!!!NIFC-rismid: 300000053
!!!URL-scan: http://repozytorium.nifc.pl/skany/pl-cz-nut--iii-47
!!!ONB-nifc: UWAGA: części Mszy: Kyrie, Gloria, Justus ut palma, Credo, Et incarnatus, Et resurrexit, Veritas mea, Sanctus, Pleni, Benedictus, Agnus Dei, Dona nobis
**kern	**text	**dynam	**kern	**text	**dynam	**kern	**text	**dynam	**kern	**dynam	**kern	**dynam	**kern	**dynam	**kern	**dynam	**kern	**dynam	**kern	**dynam	**kern	**dynam
*part10	*part10	*part10	*part9	*part9	*part9	*part8	*part8	*part8	*part7	*part7	*part6	*part6	*part5	*part5	*part4	*part4	*part3	*part3	*part2	*part2	*part1	*part1
*staff10	*staff10	*	*staff9	*staff9	*	*staff8	*staff8	*	*staff7	*	*staff6	*	*staff5	*	*staff4	*	*staff3	*	*staff2	*	*staff1	*
*Iempty	*	*	*Itenor	*	*	*Itenor	*	*	*Itromt	*	*Icor	*	*Icor	*	*Ifagot	*	*Ifagot	*	*Iclars	*	*Iclars	*
*I"Baſso.	*	*	*I"Tenore 2do	*	*	*I"Tenore 1mo	*	*	*I"Trombone	*	*I"Corno. 2do in As.	*	*I"Corno 1mo in As.	*	*I"Fagotto. 2do	*	*I"Fagotto 1mo	*	*I"Clarinetto. 2do in B.	*	*I"Clarinetto. 1mo in B.	*
*I'B	*	*	*I'T II	*	*	*I'T I	*	*	*I'trb	*	*I'cor II	*	*I'cor I	*	*I'fag II	*	*I'fag I	*	*I'cl II	*	*I'cl I	*
*group3	*	*	*group3	*	*	*group3	*	*	*group2	*	*group2	*	*group2	*	*group1	*	*group1	*	*group1	*	*group1	*
*clefF4	*	*	*clefC4	*	*	*clefC4	*	*	*clefF4	*	*clefG2	*	*clefG2	*	*clefF4	*	*clefF4	*	*clefG2	*	*clefG2	*
*	*	*	*	*	*	*	*	*	*	*	*ITrd2c4	*	*ITrd2c4	*	*	*	*	*	*ITrd1c2	*	*ITrd1c2	*
*k[b-e-a-d-]	*	*	*k[b-e-a-d-]	*	*	*k[b-e-a-d-]	*	*	*k[b-e-a-d-]	*	*k[b-e-a-d-]	*	*k[b-e-a-d-]	*	*k[b-e-a-d-]	*	*k[b-e-a-d-]	*	*k[b-e-a-d-]	*	*k[b-e-a-d-]	*
*A-:	*	*	*A-:	*	*	*A-:	*	*	*A-:	*	*A-:	*	*A-:	*	*A-:	*	*A-:	*	*A-:	*	*A-:	*
*M4/4	*	*	*M4/4	*	*	*M4/4	*	*	*M4/4	*	*M4/4	*	*M4/4	*	*M4/4	*	*M4/4	*	*M4/4	*	*M4/4	*
*met(c)	*	*	*met(c)	*	*	*met(c)	*	*	*met(c)	*	*met(c)	*	*met(c)	*	*met(c)	*	*met(c)	*	*met(c)	*	*met(c)	*
=1	=1	=1	=1	=1	=1	=1	=1	=1	=1	=1	=1	=1	=1	=1	=1	=1	=1	=1	=1	=1	=1	=1
*2\right	*	*	*2\right	*	*	*2\right	*	*	*2\right	*	*2\right	*	*2\right	*	*2\right	*	*2\right	*	*2\right	*	*2\right	*
!LO:TX:a:B:t=Graduale	!	!	!LO:TX:a:B:t=Graduale	!	!	!LO:TX:a:B:t=Graduale	!	!	!LO:TX:a:B:t=Graduale	!	!LO:TX:a:B:t=Graduale	!	!LO:TX:a:B:t=Graduale	!	!LO:TX:a:B:t=Graduale	!	!LO:TX:a:B:t=Graduale	!	!LO:TX:a:B:t=Graduale	!	!LO:TX:a:B:t=Graduale	!
!LO:TX:a:B:t=Andante.	!	!LO:DY:b	!LO:TX:a:B:t=Andante	!	!LO:DY:b:t=p.	!LO:TX:a:B:t=Andante	!	!LO:DY:b:t=p.	!LO:TX:a:B:t=Andante	!	!LO:TX:a:B:t=Andante in As.	!LO:DY:b	!LO:TX:a:B:t=Andante in As.	!LO:DY:b	!LO:TX:a:B:t=Andante.	!LO:DY:b	!LO:TX:a:B:t=Andante.	!LO:DY:b:t=p.	!LO:TX:a:B:t=Andante.	!LO:DY:b	!LO:TX:a:B:t=Andante	!LO:DY:b
(4AA-/	Ju-	p	2E-/	Ju-	p	2A-\	Ju-	p	4AA-/	.	2c/	p	2a-\	p	8AA-'/L	p	8AA-'/L	p	2e-/	p	2a-\	p
.	.	.	.	.	.	.	.	.	.	.	.	.	.	.	8C'/	.	8C'/	.	.	.	.	.
4C/)	.	.	.	.	.	.	.	.	4r	.	.	.	.	.	8E-'/	.	8E-'/	.	.	.	.	.
.	.	.	.	.	.	.	.	.	.	.	.	.	.	.	8A-'/J	.	8A-'/J	.	.	.	.	.
!	!	!	!	!	!	!	!	!	!	!	!	!	!	!	!	!	!	!	!	!	!LO:TX:a:t=P:problem:łuki dopisane ołówkiem [zgodnie z instrukcją nie umieszczone w transkrypcji]	!
4A-\	-stus	.	4E-/	-stus	.	4c\	-stus	.	2r	.	4c/	.	4a-\	.	8A-'\L	.	8A-'\L	.	4e-/	.	4cc\	.
.	.	.	.	.	.	.	.	.	.	.	.	.	.	.	8E-'\	.	8E-'\	.	.	.	.	.
4B-\	ut	.	4E-/	ut	.	4d-\	ut	.	.	.	4e-/	.	4b-\	.	8B-'\	.	8B-'\	.	4e-/	.	4dd-\	.
.	.	.	.	.	.	.	.	.	.	.	.	.	.	.	8E-'\J	.	8E-'\J	.	.	.	.	.
=2	=2	=2	=2	=2	=2	=2	=2	=2	=2	=2	=2	=2	=2	=2	=2	=2	=2	=2	=2	=2	=2	=2
*	*	*	*	*	*	*	*	*	*	*	*	*	*	*	*tremolo	*	*tremolo	*	*	*	*	*
*	*	*	*	*	*	*	*	*	*	*	*	*	*	*	*tremolo	*	*	*	*	*	*	*
*	*	*	*	*	*	*	*	*	*	*	*	*	*	*	*	*	*tremolo	*	*	*	*	*
2c\	pal-	.	2A-\	pal-	.	2e-\	pal-	.	4AA-/	.	2a-\	.	2cc\	.	8c\L	.	8c\L	.	2a-\	.	2ee-\	.
.	.	.	.	.	.	.	.	.	.	.	.	.	.	.	8c\	.	8c\	.	.	.	.	.
.	.	.	.	.	.	.	.	.	4r	.	.	.	.	.	8E-\	.	8E-\	.	.	.	.	.
.	.	.	.	.	.	.	.	.	.	.	.	.	.	.	8E-\J	.	8E-\J	.	.	.	.	.
*	*	*	*	*	*	*	*	*	*	*	*	*	*	*	*Xtremolo	*	*Xtremolo	*	*	*	*	*
4B-\	-ma	.	4G\	-ma	.	4d-\	-ma	.	2r	.	4e-/	.	4b-\	.	8B-\L	.	8B-\L	.	4g\	.	4dd-\	.
.	.	.	.	.	.	.	.	.	.	.	.	.	.	.	8E-\	.	8E-\	.	.	.	.	.
4A-\	flo-	.	4A-\	flo-	.	4c\	flo-	.	.	.	4c/	.	4a-\	.	8A-\	.	8A-\	.	4a-\	.	4cc\	.
.	.	.	.	.	.	.	.	.	.	.	.	.	.	.	8E-\J	.	8E-\J	.	.	.	.	.
!LO:LB:g=original	!	!	!	!	!	!	!	!	!	!	!	!	!	!	!	!	!	!	!	!	!	!
=3	=3	=3	=3	=3	=3	=3	=3	=3	=3	=3	=3	=3	=3	=3	=3	=3	=3	=3	=3	=3	=3	=3
*	*	*	*	*	*	*	*	*	*	*	*	*	*	*	*tremolo	*	*tremolo	*	*	*	*	*
(2G\	-re-	.	[2E-/	-re-	.	(2B-\	-re-	.	4E-\	.	2e-/	.	2b-\	.	8G\L	.	8G\L	.	2e-/	.	2b-\	.
.	.	.	.	.	.	.	.	.	.	.	.	.	.	.	8G\	.	8G\	.	.	.	.	.
.	.	.	.	.	.	.	.	.	4r	.	.	.	.	.	8E-\	.	8E-\	.	.	.	.	.
.	.	.	.	.	.	.	.	.	.	.	.	.	.	.	8E-\J	.	8E-\J	.	.	.	.	.
2A-\)	.	.	2E-/]	.	.	2c\)	.	.	4E-\	.	2a-\	.	2cc\	.	8A-\L	.	8A-\L	.	2e-/	.	2cc\	.
.	.	.	.	.	.	.	.	.	.	.	.	.	.	.	8A-\	.	8A-\	.	.	.	.	.
.	.	.	.	.	.	.	.	.	4r	.	.	.	.	.	8E-\	.	8E-\	.	.	.	.	.
.	.	.	.	.	.	.	.	.	.	.	.	.	.	.	8E-\J	.	8E-\J	.	.	.	.	.
*	*	*	*	*	*	*	*	*	*	*	*	*	*	*	*Xtremolo	*	*Xtremolo	*	*	*	*	*
!	!	!	!LO:LB:g=original	!	!	!LO:LB:g=original	!	!	!	!	!	!	!	!	!	!	!	!	!	!	!	!
=4	=4	=4	=4	=4	=4	=4	=4	=4	=4	=4	=4	=4	=4	=4	=4	=4	=4	=4	=4	=4	=4	=4
4B-\	-bit	.	4E-/	-bit	.	4d-\	-bit	.	4E-\	.	4e-/	.	4b-\	.	4B-\	.	4B-\	.	8e-/L	.	8dd-\L	.
.	.	.	.	.	.	.	.	.	.	.	.	.	.	.	.	.	.	.	8g/	.	8b-\	.
4r	.	.	4r	.	.	4r	.	.	4r	.	4r	.	4r	.	4r	.	4r	.	8dd-X/	.	8ff\	.
.	.	.	.	.	.	.	.	.	.	.	.	.	.	.	.	.	.	.	8cc/J	.	8ee-\J	.
2r	.	.	2r	.	.	2r	.	.	2r	.	2r	.	2r	.	2r	.	2r	.	8b-/L	.	8dd-\L	.
.	.	.	.	.	.	.	.	.	.	.	.	.	.	.	.	.	.	.	8a-/	.	8cc\	.
.	.	.	.	.	.	.	.	.	.	.	.	.	.	.	.	.	.	.	8g/	.	8b-\	.
.	.	.	.	.	.	.	.	.	.	.	.	.	.	.	.	.	.	.	8f/J	.	8a-\J	.
!	!	!	!	!	!	!	!	!	!LO:LB:g=original	!	!	!	!	!	!LO:LB:g=original	!	!LO:LB:g=original	!	!	!	!	!
=5	=5	=5	=5	=5	=5	=5	=5	=5	=5	=5	=5	=5	=5	=5	=5	=5	=5	=5	=5	=5	=5	=5
2E-\	Ju-	.	2E-/	Ju-	.	2E-/	Jus-	.	4E-\	.	2e-/	.	2b-\	.	8EE-/L	.	8EE-/L	.	2e-/	.	2e-/	.
.	.	.	.	.	.	.	.	.	.	.	.	.	.	.	8GG/	.	8GG/	.	.	.	.	.
.	.	.	.	.	.	.	.	.	4r	.	.	.	.	.	8BB-/	.	8BB-/	.	.	.	.	.
.	.	.	.	.	.	.	.	.	.	.	.	.	.	.	8E-/J	.	8E-/J	.	.	.	.	.
4E-\	-stus	.	4E-/	-stus	.	4G/	-tus	.	4E-\	.	4e-/	.	4b-\	.	8EE-/L	.	8EE-/L	.	4e-/	.	4g/	.
.	.	.	.	.	.	.	.	.	.	.	.	.	.	.	8GG/	.	8GG/	.	.	.	.	.
4G\	ut	.	4E-/	ut	.	4B-\	ut	.	4r	.	4e-/	.	4b-\	.	8BB-/	.	8BB-/	.	4e-/	.	4b-/	.
.	.	.	.	.	.	.	.	.	.	.	.	.	.	.	8E-/J	.	8E-/J	.	.	.	.	.
!	!	!	!	!	!	!	!	!	!	!	!	!	!LO:LB:g=original	!	!	!	!	!	!LO:LB:g=original	!	!LO:LB:g=original	!
=6	=6	=6	=6	=6	=6	=6	=6	=6	=6	=6	=6	=6	=6	=6	=6	=6	=6	=6	=6	=6	=6	=6
*	*	*	*	*	*	*	*	*	*	*	*	*	*	*	*tremolo	*	*tremolo	*	*	*	*	*
2B-\	pal-	.	2E-/	pal-	.	2d-\	pal-	.	4E-\	.	2e-/	.	2cc\	.	8c\L	.	8c\L	.	2e-/	.	2dd-\	.
.	.	.	.	.	.	.	.	.	.	.	.	.	.	.	8c\	.	8c\	.	.	.	.	.
.	.	.	.	.	.	.	.	.	4r	.	.	.	.	.	8E-\	.	8E-\	.	.	.	.	.
.	.	.	.	.	.	.	.	.	.	.	.	.	.	.	8E-\J	.	8E-\J	.	.	.	.	.
*	*	*	*	*	*	*	*	*	*	*	*	*	*	*	*Xtremolo	*	*Xtremolo	*	*	*	*	*
4A-\	-ma	.	4E-/	-ma	.	4c\	-ma	.	4E-\	.	4a-\	.	4cc\	.	8A-\L	.	8A-\L	.	4e-/	.	4cc\	.
.	.	.	.	.	.	.	.	.	.	.	.	.	.	.	8E-\	.	8E-\	.	.	.	.	.
4G\	flo-	.	4E-/	flo-	.	4B-\	flo-	.	4r	.	4e-\	.	4b-\	.	8G\	.	8G\	.	4e-/	.	4b-\	.
.	.	.	.	.	.	.	.	.	.	.	.	.	.	.	8E-\J	.	8E-\J	.	.	.	.	.
!LO:LB:g=original	!	!	!	!	!	!	!	!	!	!	!LO:LB:g=original	!	!	!	!	!	!	!	!	!	!	!
=7	=7	=7	=7	=7	=7	=7	=7	=7	=7	=7	=7	=7	=7	=7	=7	=7	=7	=7	=7	=7	=7	=7
(2c\	-re-	.	(2E-/	-re-	.	(2A-\	-re-	.	4AA-/	.	2c/	.	2a-\	.	8C\L	.	8C\L	.	2e-/	.	2a-\	.
.	.	.	.	.	.	.	.	.	.	.	.	.	.	.	8E-\	.	8E-\	.	.	.	.	.
.	.	.	.	.	.	.	.	.	4r	.	.	.	.	.	8A-\	.	8A-\	.	.	.	.	.
.	.	.	.	.	.	.	.	.	.	.	.	.	.	.	8E-\J	.	8E-\J	.	.	.	.	.
*	*	*	*	*	*	*	*	*	*	*	*	*	*	*	*tremolo	*	*tremolo	*	*	*	*	*
2B-\)	.	.	2G/)	.	.	2B-\)	.	.	4E-\	.	2e-/	.	2b-\	.	8G\L	.	8G\L	.	2g/	.	2b-\	.
.	.	.	.	.	.	.	.	.	.	.	.	.	.	.	8G\	.	8G\	.	.	.	.	.
.	.	.	.	.	.	.	.	.	4r	.	.	.	.	.	8E-\	.	8E-\	.	.	.	.	.
.	.	.	.	.	.	.	.	.	.	.	.	.	.	.	8E-\J	.	8E-\J	.	.	.	.	.
*	*	*	*	*	*	*	*	*	*	*	*	*	*	*	*	*	*Xtremolo	*	*	*	*	*
*	*	*	*	*	*	*	*	*	*	*	*	*	*	*	*Xtremolo	*	*	*	*	*	*	*
*	*	*	*	*	*	*	*	*	*	*	*	*	*	*	*Xtremolo	*	*Xtremolo	*	*	*	*	*
=8	=8	=8	=8	=8	=8	=8	=8	=8	=8	=8	=8	=8	=8	=8	=8	=8	=8	=8	=8	=8	=8	=8
4A-\	-bit	.	4A-\	-bit	.	4c\	-bit	.	4AA-/	.	4a-\	.	4cc\	.	4A-\	.	4A-\	.	4a-\	.	8cc\L	.
.	.	.	.	.	.	.	.	.	.	.	.	.	.	.	.	.	.	.	.	.	8a-\	.
4r	.	.	4r	.	.	4r	.	.	4r	.	4r	.	4r	.	4r	.	4r	.	4r	.	8g\	.
.	.	.	.	.	.	.	.	.	.	.	.	.	.	.	.	.	.	.	.	.	8a-\J	.
2r	.	.	2r	.	.	2r	.	.	2r	.	2r	.	2r	.	2r	.	2r	.	2r	.	8b-\L	.
.	.	.	.	.	.	.	.	.	.	.	.	.	.	.	.	.	.	.	.	.	8cc\	.
.	.	.	.	.	.	.	.	.	.	.	.	.	.	.	.	.	.	.	.	.	8dd-\	.
.	.	.	.	.	.	.	.	.	.	.	.	.	.	.	.	.	.	.	.	.	8ee-\J	.
!	!	!	!LO:LB:g=original	!	!	!LO:LB:g=original	!	!	!	!	!	!	!	!	!	!	!	!	!	!	!	!
=9	=9	=9	=9	=9	=9	=9	=9	=9	=9	=9	=9	=9	=9	=9	=9	=9	=9	=9	=9	=9	=9	=9
4.A-\	ſi-	.	4.d-\	ſi-	.	4.f\	ſi-	.	4.AA-/	.	4.A-/	.	4.a-\	.	8AA-/L	.	8AA-/L	.	4.dd-\	.	4.ff\	.
.	.	.	.	.	.	.	.	.	.	.	.	.	.	.	8D-/	.	8D-/	.	.	.	.	.
.	.	.	.	.	.	.	.	.	.	.	.	.	.	.	8F/	.	8F/	.	.	.	.	.
8A-\	-cut	.	8c\	-cut	.	8en\	-cut	.	8AA-/	.	8A-/	.	8a-\	.	8A-/J	.	8A-/J	.	8cc\	.	8eeX\	.
4A-\	ad	.	4d-\	ad	.	4f\	ad	.	4AA-/	.	4A-/	.	4a-\	.	8AA-/L	.	8AA-/L	.	4dd-\	.	4ff\	.
.	.	.	.	.	.	.	.	.	.	.	.	.	.	.	8D-/	.	8D-/	.	.	.	.	.
4A-\	nos	.	4B-\	nos	.	4d-\	nos	.	4AA-/	.	4A-/	.	4a-\	.	8F/	.	8F/	.	4b-\	.	4dd-X\	.
.	.	.	.	.	.	.	.	.	.	.	.	.	.	.	8A-/J	.	8A-/J	.	.	.	.	.
=10	=10	=10	=10	=10	=10	=10	=10	=10	=10	=10	=10	=10	=10	=10	=10	=10	=10	=10	=10	=10	=10	=10
4.A-\	li-	.	4.c\	li-	.	4.e-X\	li-	.	4.AA-/	.	2c/	.	2a-\	.	8AA-/L	.	8AA-/L	.	4.cc\	.	4.ee-\	.
.	.	.	.	.	.	.	.	.	.	.	.	.	.	.	8C/	.	8C/	.	.	.	.	.
.	.	.	.	.	.	.	.	.	.	.	.	.	.	.	8E-/	.	8E-/	.	.	.	.	.
8A-\	-ba-	.	8Bn\	-ba-	.	8dn\	-ba-	.	8AA-/	.	.	.	.	.	8A-/J	.	8A-/J	.	8bX\	.	8dd\	.
4A-\	-ni	.	4c\	-ni	.	4e-\	-ni	.	4AA-/	.	4c/	.	4a-\	.	8c\L	.	8c\L	.	4cc\	.	4ee-\	.
.	.	.	.	.	.	.	.	.	.	.	.	.	.	.	8A-\	.	8A-\	.	.	.	.	.
4r	.	.	4r	.	.	4r	.	.	4r	.	4r	.	4r	.	8E-\	.	8E-\	.	4r	.	4r	.
.	.	.	.	.	.	.	.	.	.	.	.	.	.	.	8C\J	.	8C\J	.	.	.	.	.
!LO:LB:g=original	!	!	!	!	!	!	!	!	!LO:LB:g=original	!	!	!	!	!	!LO:LB:g=original	!	!LO:LB:g=original	!	!	!	!	!
=11	=11	=11	=11	=11	=11	=11	=11	=11	=11	=11	=11	=11	=11	=11	=11	=11	=11	=11	=11	=11	=11	=11
4d-\	mul-	.	4E-/	mul-	.	4B-\	mul-	.	4D-X\	.	4e-/	.	4b-\	.	4D-\	.	4D-\	.	4e-/	.	4b-\	.
8c\	-ti-	.	8E-/	-ti-	.	8c\	-ti-	.	4C\	.	4r	.	4r	.	8C\L	.	8C\L	.	8e-/L	.	8.cc\L	.
8c\	-pli-	.	8E-/	-pli-	.	8c\	-pli-	.	.	.	.	.	.	.	8C\J	.	8C\J	.	8e-/J	.	.	.
.	.	.	.	.	.	.	.	.	.	.	.	.	.	.	.	.	.	.	.	.	16cc\Jk	.
4B-\	-ca-	.	4G/	-ca-	.	4d-X\	-ca-	.	4BB-/	.	4e-/	.	4b-\	.	4BB-/	.	4BB-/	.	4g/	.	4dd-X\	.
4E-\	-bi-	.	4B-\	-bi-	.	4e-\	-bi-	.	4E-\	.	4e-/	.	4cc\	.	4E-\	.	4E-\	.	4b-/	.	4ee-\	.
!	!	!	!LO:LB:g=original	!	!	!LO:LB:g=original	!	!	!	!	!	!	!	!	!	!	!	!	!	!	!LO:LB:g=original	!
=12	=12	=12	=12	=12	=12	=12	=12	=12	=12	=12	=12	=12	=12	=12	=12	=12	=12	=12	=12	=12	=12	=12
4A-\	-tur	.	4A-\	-tur	.	4c\	-tur	.	4AA-/	.	4c/	.	4a-\	.	4AA-/	.	4AA-/	.	4a-\	.	8cc\L	.
.	.	.	.	.	.	.	.	.	.	.	.	.	.	.	.	.	.	.	.	.	8a-\	.
4r	.	.	4r	.	.	4r	.	.	4r	.	4r	.	4r	.	4r	.	4r	.	4r	.	8g\	.
.	.	.	.	.	.	.	.	.	.	.	.	.	.	.	.	.	.	.	.	.	8a-\J	.
2r	.	.	2r	.	.	2r	.	.	2r	.	2r	.	2r	.	2r	.	2r	.	2r	.	8b-\L	.
.	.	.	.	.	.	.	.	.	.	.	.	.	.	.	.	.	.	.	.	.	8cc\	.
.	.	.	.	.	.	.	.	.	.	.	.	.	.	.	.	.	.	.	.	.	8dd-X\	.
.	.	.	.	.	.	.	.	.	.	.	.	.	.	.	.	.	.	.	.	.	8ee-\J	.
!	!	!	!	!	!	!	!	!	!	!	!	!	!LO:LB:g=original	!	!	!	!	!	!	!	!	!
=13	=13	=13	=13	=13	=13	=13	=13	=13	=13	=13	=13	=13	=13	=13	=13	=13	=13	=13	=13	=13	=13	=13
4.A-\	ſi-	.	4.d-\	ſi-	.	4.f\	ſi-	.	4.AA-/	.	4.A-/	.	4.a-\	.	8AA-/L	.	8AA-/L	.	4.dd-\	.	4.ff\	.
.	.	.	.	.	.	.	.	.	.	.	.	.	.	.	8D-/	.	8D-/	.	.	.	.	.
.	.	.	.	.	.	.	.	.	.	.	.	.	.	.	8F/	.	8F/	.	.	.	.	.
8A-\	-cut	.	8c\	-cut	.	8en\	-cut	.	8AA-/	.	8A-/	.	8a-\	.	8A-/J	.	8A-/J	.	8cc\	.	8eeX\	.
4A-\	ad	.	4d-\	ad	.	4f\	ad	.	4AA-/	.	4A-/	.	4a-\	.	8AA-/L	.	8AA-/L	.	4dd-\	.	4ff\	.
.	.	.	.	.	.	.	.	.	.	.	.	.	.	.	8D-/	.	8D-/	.	.	.	.	.
4A-\	nos	.	4B-\	nos	.	4d-\	nos	.	4AA-/	.	4A-/	.	4a-\	.	8F/	.	8F/	.	4b-\	.	4dd-\	.
.	.	.	.	.	.	.	.	.	.	.	.	.	.	.	8A-/J	.	8A-/J	.	.	.	.	.
!LO:LB:g=original	!	!	!	!	!	!	!	!	!	!	!LO:LB:g=original	!	!	!	!	!	!	!	!LO:LB:g=original	!	!	!
=14	=14	=14	=14	=14	=14	=14	=14	=14	=14	=14	=14	=14	=14	=14	=14	=14	=14	=14	=14	=14	=14	=14
4.A-\	li-	.	4.c\	li-	.	4.e-X\	li-	.	4.AA-/	.	2c/	.	2a-\	.	8AA-/L	.	8AA-/L	.	4.cc\	.	4.ee-\	.
.	.	.	.	.	.	.	.	.	.	.	.	.	.	.	8C/	.	8C/	.	.	.	.	.
.	.	.	.	.	.	.	.	.	.	.	.	.	.	.	8E-/	.	8E-/	.	.	.	.	.
8A-\	-ba-	.	8Bn\	-ba-	.	8dn\	-ba-	.	8AA-/	.	.	.	.	.	8A-/J	.	8A-/J	.	8bX\	.	8dd\	.
4A-\	-ni	.	4c\	-ni	.	4e-\	-ni	.	4AA-/	.	4c/	.	4a-\	.	8c\L	.	8c\L	.	4cc\	.	4ee-\	.
.	.	.	.	.	.	.	.	.	.	.	.	.	.	.	8A-\	.	8A-\	.	.	.	.	.
4r	.	.	4r	.	.	4r	.	.	4r	.	4r	.	4r	.	8E-\	.	8E-\	.	4r	.	4r	.
.	.	.	.	.	.	.	.	.	.	.	.	.	.	.	8C\J	.	8C\J	.	.	.	.	.
!	!	!	!	!	!	!LO:LB:g=original	!	!	!	!	!	!	!	!	!	!	!	!	!	!	!	!
=15	=15	=15	=15	=15	=15	=15	=15	=15	=15	=15	=15	=15	=15	=15	=15	=15	=15	=15	=15	=15	=15	=15
4d-\	mul-	.	4G\	mul-	.	4B-\	mul-	.	4D-X\	.	4e-/	.	4b-\	.	4D-\	.	4D-\	.	4g\	.	4b-\	.
8c\	-ti-	.	8A-\	-ti-	.	8c\	-ti-	.	4C\	.	4r	.	4r	.	8C\L	.	8C\L	.	8a-\L	.	8cc\L	.
8c\	-pli-	.	8A-\	-pli-	.	8c\	-pli-	.	.	.	.	.	.	.	8C\J	.	8C\J	.	8a-\J	.	8cc\J	.
4B-\	-ca-	.	4B-\	-ca-	.	4d-\	-ca-	.	4BB-\	.	4e-/	.	4b-\	.	4BB-/	.	4BB-/	.	4b-\	.	4dd-\	.
4E-\	-bi-	.	4D-/	-bi-	.	4e-\	-bi-	.	4E-\	.	4e-/	.	4b-\	.	4E-\	.	4E-/	.	4d-/	.	4g/	.
!	!	!	!LO:LB:g=original	!	!	!	!	!	!	!	!	!	!	!	!	!	!	!	!	!	!	!
=16	=16	=16	=16	=16	=16	=16	=16	=16	=16	=16	=16	=16	=16	=16	=16	=16	=16	=16	=16	=16	=16	=16
4A-\	-tur	.	4C/	-tur	.	4A-\	-tur	.	4AA-/	.	4c/	.	4a-\	.	4AA-/	.	4AA-/	.	4c/	.	4a-\	.
4r	.	.	4r	.	.	4r	.	.	4A-\	.	4a-\	.	4a-\	.	4A-\	.	4c\	.	4e-^>/	.	4cc^\	.
2r	.	.	2r	.	.	2r	.	.	4G\	.	4a-\	.	4cc\	.	4G\	.	4B-\	.	4e-^>/	.	4b-^\	.
!	!	!	!	!	!	!	!	!	!	!	!	!	!	!	!	!	!	!LO:DY:b:t=p.	!	!	!	!
.	.	.	.	.	.	.	.	.	4F\	.	4a-\	.	4b-\	.	4F\	.	4A-\	p	4a-^>/	.	4dd^\	.
!LO:LB:g=original	!	!	!	!	!	!	!	!	!LO:LB:g=original	!	!	!	!	!	!LO:LB:g=original	!	!	!	!	!	!	!
=17	=17	=17	=17	=17	=17	=17	=17	=17	=17	=17	=17	=17	=17	=17	=17	=17	=17	=17	=17	=17	=17	=17
*	*	*	*	*	*	*	*	*	*	*	*	*	*	*	*	*	*	*	*tremolo	*	*	*
*	*	*	*	*	*	*	*	*	*	*	*	*	*	*	*	*	*	*	*tremolo	*	*	*
!	!	!	!	!	!	!	!	!	!	!LO:DY:b	!	!LO:DY:b:t=p.	!	!LO:DY:b	!	!LO:DY:b:t=p.	!	!	!	!LO:DY:b	!	!LO:DY:b
2E-\	in	.	2G/	in	.	2e-\	in	.	4E-\	p	(1e-	p	(1b-	p	4E-\	p	4G\	.	8g\L	p	8r	p
.	.	.	.	.	.	.	.	.	.	.	.	.	.	.	.	.	.	.	8g\	.	8e-/L	.
.	.	.	.	.	.	.	.	.	4r	.	.	.	.	.	4r	.	4r	.	8b-\	.	8g/	.
.	.	.	.	.	.	.	.	.	.	.	.	.	.	.	.	.	.	.	8b-\J	.	8b-/J	.
*	*	*	*	*	*	*	*	*	*	*	*	*	*	*	*	*	*	*	*rep	*	*	*
4E-\	do-	.	4G/	do-	.	(8dn\L	do-	.	4E-\	.	.	.	.	.	4E-\	.	4B-\	.	8g\L	.	8ee-\L	.
.	.	.	.	.	.	8e-\J)	.	.	.	.	.	.	.	.	.	.	.	.	8g\	.	8gg\	.
4E-\	-mo	.	4G/	-mo	.	(8f\L	-mo	.	4r	.	.	.	.	.	4r	.	4r	.	8b-\	.	8bb-\	.
.	.	.	.	.	.	8e-\J)	.	.	.	.	.	.	.	.	.	.	.	.	8b-\J	.	8ee-\J	.
*	*	*	*	*	*	*	*	*	*	*	*	*	*	*	*	*	*	*	*Xrep	*	*	*
!	!	!	!	!	!	!LO:LB:g=original	!	!	!	!	!	!	!	!	!	!	!LO:LB:g=original	!	!	!	!LO:LB:g=original	!
=18	=18	=18	=18	=18	=18	=18	=18	=18	=18	=18	=18	=18	=18	=18	=18	=18	=18	=18	=18	=18	=18	=18
4.A-\	Do-	.	4.G/	Do-	.	4.dn\	Do-	.	4AA-/	.	1a-)	.	1cc)	.	4AA-/	.	4E-\	.	8a-\L	.	8r	.
.	.	.	.	.	.	.	.	.	.	.	.	.	.	.	.	.	.	.	8a-\	.	8e-/L	.
.	.	.	.	.	.	.	.	.	4r	.	.	.	.	.	4r	.	4r	.	8cc\	.	8a-/	.
8A-\	-mi-	.	8A-/	-mi-	.	8c\	-mi-	.	.	.	.	.	.	.	.	.	.	.	8cc\J	.	8cc/J	.
*	*	*	*	*	*	*	*	*	*	*	*	*	*	*	*	*	*	*	*rep	*	*	*
4A-\	-ni	.	4A-/	-ni	.	4c\	-ni	.	2r	.	.	.	.	.	2r	.	2r	.	8a-\L	.	8ee-\L	.
.	.	.	.	.	.	.	.	.	.	.	.	.	.	.	.	.	.	.	8a-\	.	8aa-\	.
4r	.	.	4r	.	.	4r	.	.	.	.	.	.	.	.	.	.	.	.	8cc\	.	8gg\	.
.	.	.	.	.	.	.	.	.	.	.	.	.	.	.	.	.	.	.	8cc\J	.	8ff\J	.
*	*	*	*	*	*	*	*	*	*	*	*	*	*	*	*	*	*	*	*Xrep	*	*	*
=19	=19	=19	=19	=19	=19	=19	=19	=19	=19	=19	=19	=19	=19	=19	=19	=19	=19	=19	=19	=19	=19	=19
4B-\	in	.	4A-\	in	.	(8B-\L	in	.	4BB-/	.	2a-\	.	2b-\	.	2B-\	.	2dn\	.	8f/L	.	8b-\L	.
.	.	.	.	.	.	8c\J)	.	.	.	.	.	.	.	.	.	.	.	.	8f/	.	8cc\	.
8B-\	do-	.	8A-\	do-	.	8dn\	do-	.	4r	.	.	.	.	.	.	.	.	.	8a-/	.	8dd\	.
8B-\	-mo	.	8A-\	-mo	.	8e-\	-mo	.	.	.	.	.	.	.	.	.	.	.	8a-/J	.	8ee-\J	.
*	*	*	*	*	*	*	*	*	*	*	*	*	*	*	*	*	*	*	*rep	*	*	*
4B-\	do-	.	4A-\	do-	.	4f\	Do-	.	4BB-/	.	4a-\	.	4b-\	.	4B-\	.	4d\	.	8f/L	.	4ff\	.
.	.	.	.	.	.	.	.	.	.	.	.	.	.	.	.	.	.	.	8f/	.	.	.
4B-\	-mi-	.	4A-\	-mi-	.	4B-\	-mi-	.	4r	.	4a-\	.	4b-\	.	4B-\	.	4d\	.	8a-/	.	4b-\	.
.	.	.	.	.	.	.	.	.	.	.	.	.	.	.	.	.	.	.	8a-/J	.	.	.
*	*	*	*	*	*	*	*	*	*	*	*	*	*	*	*	*	*	*	*Xrep	*	*	*
*	*	*	*	*	*	*	*	*	*	*	*	*	*	*	*	*	*	*	*Xtremolo	*	*	*
!	!	!	!LO:LB:g=original	!	!	!	!	!	!	!	!	!	!LO:LB:g=original	!	!	!	!	!	!	!	!	!
=20	=20	=20	=20	=20	=20	=20	=20	=20	=20	=20	=20	=20	=20	=20	=20	=20	=20	=20	=20	=20	=20	=20
!	!	!	!	!	!	!	!	!	!	!	!	!	!LO:TX:a:t=d	!	!	!	!	!	!	!	!	!
4E-\	-ni	.	4G/	-ni	.	4e-\	-ni	.	4E-\	.	4e-/	.	4b-\	.	4E-\	.	4e-\	.	8e-/L	.	8ee-\L	.
.	.	.	.	.	.	.	.	.	.	.	.	.	.	.	.	.	.	.	8g/	.	8gg\	.
4r	.	.	4r	.	.	4r	.	.	4r	.	4r	.	4r	.	4r	.	4r	.	8b-/	.	8bb-\	.
.	.	.	.	.	.	.	.	.	.	.	.	.	.	.	.	.	.	.	8g/J	.	8gg\J	.
2r	.	.	2r	.	.	2r	.	.	2r	.	2r	.	2r	.	2r	.	2r	.	8e-/L	.	8ee-\L	.
.	.	.	.	.	.	.	.	.	.	.	.	.	.	.	.	.	.	.	8B-/	.	8b-\	.
.	.	.	.	.	.	.	.	.	.	.	.	.	.	.	.	.	.	.	8G/	.	8g\	.
.	.	.	.	.	.	.	.	.	.	.	.	.	.	.	.	.	.	.	8B-/J	.	8b-\J	.
!LO:LB:g=original	!	!	!	!	!	!LO:LB:g=original	!	!	!	!	!	!	!	!	!	!	!	!	!LO:LB:g=original	!	!	!
=21	=21	=21	=21	=21	=21	=21	=21	=21	=21	=21	=21	=21	=21	=21	=21	=21	=21	=21	=21	=21	=21	=21
4E-\	ad	.	4G/	ad	.	4e-\	Ad	.	4E-\	.	1e-	.	1b-	.	4E-\	.	4G\	.	8e-\L	.	4ee-\	.
.	.	.	.	.	.	.	.	.	.	.	.	.	.	.	.	.	.	.	8b-\	.	.	.
4E-\	a-	.	4G/	a-	.	4e-\	a-	.	4r	.	.	.	.	.	4r	.	4r	.	8g\	.	4ee-\	.
.	.	.	.	.	.	.	.	.	.	.	.	.	.	.	.	.	.	.	8b-\J	.	.	.
*	*	*	*	*	*	*	*	*	*	*	*	*	*	*	*	*	*	*	*tremolo	*	*	*
4E-\	-nun-	.	4G/	-nun-	.	(8dn\L	-nun-	.	4E-\	.	.	.	.	.	4E-\	.	4B-\	.	8g\L	.	8dd\L	.
.	.	.	.	.	.	8e-\J)	.	.	.	.	.	.	.	.	.	.	.	.	8g\	.	8ee-\	.
4E-\	-ti-	.	4G/	-ti-	.	(8f\L	-ti-	.	4r	.	.	.	.	.	4r	.	4r	.	8b-\	.	8ff\	.
.	.	.	.	.	.	8e-\J)	.	.	.	.	.	.	.	.	.	.	.	.	8b-\J	.	8ee-\J	.
=22	=22	=22	=22	=22	=22	=22	=22	=22	=22	=22	=22	=22	=22	=22	=22	=22	=22	=22	=22	=22	=22	=22
4A-\	-am	.	(8G\L	-am	.	(8dn\L	an-	.	4AA-/	.	1a-	.	1cc	.	4AA-/	.	4E-\	.	8a-\L	.	(8dd\L	.
.	.	.	8A-\J)	.	.	8c\J)	.	.	.	.	.	.	.	.	.	.	.	.	8a-\	.	8cc\J)	.
4A-\	dum	.	4A-\	dum	.	4c\	dum	.	4r	.	.	.	.	.	4r	.	4r	.	8cc\	.	4cc\	.
.	.	.	.	.	.	.	.	.	.	.	.	.	.	.	.	.	.	.	8cc\J	.	.	.
*	*	*	*	*	*	*	*	*	*	*	*	*	*	*	*	*	*	*	*rep	*	*	*
4A-\	ma-	.	4A-\	ma-	.	(8f\L	ma-	.	2r	.	.	.	.	.	2r	.	2r	.	8a-\L	.	8ff\L	.
.	.	.	.	.	.	8e-\J)	.	.	.	.	.	.	.	.	.	.	.	.	8a-\	.	8ee-\	.
8A-\	-ne	.	8A-\	-ne	.	8d\	-ne	.	.	.	.	.	.	.	.	.	.	.	8cc\	.	8dd\	.
8A-\	mi-	.	8A-\	mi-	.	8c\	mi-	.	.	.	.	.	.	.	.	.	.	.	8cc\J	.	8cc\J	.
*	*	*	*	*	*	*	*	*	*	*	*	*	*	*	*	*	*	*	*Xrep	*	*	*
!	!	!	!LO:LB:g=original	!	!	!LO:LB:g=original	!	!	!LO:LB:g=original	!	!LO:LB:g=original	!	!	!	!	!	!	!	!	!	!	!
=23	=23	=23	=23	=23	=23	=23	=23	=23	=23	=23	=23	=23	=23	=23	=23	=23	=23	=23	=23	=23	=23	=23
4B-\	-se-	.	4F/	-se-	.	(8c\L	-se-	.	4BB-/	.	1a-	.	1b-	.	1B-	.	1dn	.	8f\L	.	(8cc\L	.
.	.	.	.	.	.	8B-\J)	.	.	.	.	.	.	.	.	.	.	.	.	8f\	.	8b-\)	.
8B-\	-ri-	.	8F/	-ri-	.	8B-\	-ri-	.	4r	.	.	.	.	.	.	.	.	.	8a-\	.	8b-'\	.
8B-\	-cor-	.	8F/	-cor-	.	8B-\	-cor-	.	.	.	.	.	.	.	.	.	.	.	8a-\J	.	8b-'\J	.
*	*	*	*	*	*	*	*	*	*	*	*	*	*	*	*	*	*	*	*rep	*	*	*
8BB-/	-di-	.	8F/	-di-	.	8c\	-di-	.	4BB-/	.	.	.	.	.	.	.	.	.	8f\L	.	(8cc\L	.
8BB-/	-am	.	8F/	-am	.	8B-\	-am	.	.	.	.	.	.	.	.	.	.	.	8f\	.	8b-\)	.
4BB-/	tu-	.	4F/	tu-	.	(8A-\L	tu-	.	4r	.	.	.	.	.	.	.	.	.	8a-\	.	8a-'\	.
.	.	.	.	.	.	8F\J)	.	.	.	.	.	.	.	.	.	.	.	.	8a-\J	.	8f'\J	.
*	*	*	*	*	*	*	*	*	*	*	*	*	*	*	*	*	*	*	*Xtremolo	*	*	*
*	*	*	*	*	*	*	*	*	*	*	*	*	*	*	*	*	*	*	*Xrep	*	*	*
*	*	*	*	*	*	*	*	*	*	*	*	*	*	*	*	*	*	*	*Xtremolo	*	*	*
!LO:LB:g=original	!	!	!	!	!	!	!	!	!	!	!	!	!	!	!	!	!	!	!	!	!LO:LB:g=original	!
=24	=24	=24	=24	=24	=24	=24	=24	=24	=24	=24	=24	=24	=24	=24	=24	=24	=24	=24	=24	=24	=24	=24
!LO:TX:a:t=P:problem:niejednoznaczny zapis wysokości dźwięku	!	!	!	!	!	!	!	!	!	!	!	!	!	!	!	!	!	!	!	!	!	!
!LO:TX:a:t=e	!	!	!	!	!	!	!	!	!	!	!LO:TX:a:t=g	!	!	!	!	!	!	!	!	!	!	!
4E-\	-am	.	4E-/	-am	.	4E-/	-am	.	4E-\	.	4e-/	.	4e-/	.	4E-\	.	4e-\	.	4g/	.	8e-\L	.
.	.	.	.	.	.	.	.	.	.	.	.	.	.	.	.	.	.	.	.	.	8g\	.
4r	.	.	4r	.	.	4r	.	.	4r	.	4r	.	4r	.	4r	.	4r	.	4r	.	8b-\	.
.	.	.	.	.	.	.	.	.	.	.	.	.	.	.	.	.	.	.	.	.	8cc\J	.
2r	.	.	2r	.	.	2r	.	.	2GG^>/	.	2e-^>/	.	2b-^\	.	2G^\	.	2d-^\	.	2b-^\	.	8dd-X^\L	.
.	.	.	.	.	.	.	.	.	.	.	.	.	.	.	.	.	.	.	.	.	8b-\	.
.	.	.	.	.	.	.	.	.	.	.	.	.	.	.	.	.	.	.	.	.	8ff\	.
.	.	.	.	.	.	.	.	.	.	.	.	.	.	.	.	.	.	.	.	.	8ee-\J	.
!	!	!	!	!	!	!	!	!	!	!	!	!	!	!	!LO:LB:g=original	!	!	!	!	!	!	!
=25	=25	=25	=25	=25	=25	=25	=25	=25	=25	=25	=25	=25	=25	=25	=25	=25	=25	=25	=25	=25	=25	=25
4E-\	et	.	4A-\	et	.	4c\	Et	.	4AA-/	.	4A-/	.	4e-/	.	4A-\	.	4E-\	.	4a-\	.	4cc\	.
8E-\	ve-	.	8G\	ve-	.	8B-\	ve-	.	8AA-/L	.	8A-/L	.	8.e-/L	.	8AA-/L	.	8E-\L	.	8g\L	.	8b-\L	.
8E-\	-ri-	.	8A-\	-ri-	.	8c\	-ri-	.	8C/J	.	8A-/J	.	.	.	8C/J	.	8E-\J	.	8a-\J	.	8cc\J	.
.	.	.	.	.	.	.	.	.	.	.	.	.	16e-/Jk	.	.	.	.	.	.	.	.	.
4E-\	-ta-	.	4B-\	-ta-	.	4d-X\	-ta-	.	4E-\	.	4E-/	.	4e-/	.	4E-\	.	4E-\	.	4b-\	.	4dd-X\	.
4E-\	-tem	.	4G\	-tem	.	4B-\	-tem	.	4E-\	.	4E-/	.	4e-/	.	4E-\	.	4E-\	.	4g\	.	4b-\	.
!	!	!	!LO:LB:g=original	!	!	!LO:LB:g=original	!	!	!	!	!	!	!	!	!	!	!LO:LB:g=original	!	!	!	!	!
=26	=26	=26	=26	=26	=26	=26	=26	=26	=26	=26	=26	=26	=26	=26	=26	=26	=26	=26	=26	=26	=26	=26
4c\	tu-	.	4A-\	tu-	.	4e-\	tu-	.	4AA-/	.	4c/	.	4a-\	.	4C/	.	4c\	.	4e-/	.	4ee-\	.
8B-\	-am	.	8A-\	-am	.	8d-X\	-am	.	4r	.	8c/L	.	8a-\L	.	8BB-/L	.	8B-\L	.	8e-/L	.	8dd\L	.
8c\	per	.	8A-\	per	.	8e-\	per	.	.	.	8c/J	.	8a-\J	.	8C/J	.	8c\J	.	8e-/J	.	8ee-\J	.
4d-X\	noc-	.	4E-/	noc-	.	4f\	noc-	.	4D-X\	.	4e-/	.	4b-\	.	4D-X/	.	4d-X\	.	4e-/	.	4ff\	.
!	!	!	!	!	!	!	!	!	!	!	!	!	!	!	!	!	!	!	!	!	!LO:SIC:s=4ee-:v	!
4B-\	-tem	.	4E-/	-tem	.	4d-\	-tem	.	4BB-\	.	4e-/	.	4b-\	.	4BB-/	.	4B-\	.	4e-/	.	4dd\	.
!LO:PB:g=original	!	!	!	!	!	!	!	!	!	!	!	!	!	!	!	!	!	!	!	!	!	!
=27	=27	=27	=27	=27	=27	=27	=27	=27	=27	=27	=27	=27	=27	=27	=27	=27	=27	=27	=27	=27	=27	=27
4c\	al-	.	4A-\	al-	.	4c\	al-	.	4AA-/	.	4a-\	.	4cc\	.	4AA-/	.	4c\	.	2a-\	.	8r	.
.	.	.	.	.	.	.	.	.	.	.	.	.	.	.	.	.	.	.	.	.	(8cc\L	.
4A-\	-le-	.	4c\	-le-	.	4e-\	-le-	.	4C/	.	4c/	.	4a-\	.	4C/	.	4A-\	.	.	.	8ee-\	.
.	.	.	.	.	.	.	.	.	.	.	.	.	.	.	.	.	.	.	.	.	8aa-\J)	.
(4E-\	-lu-	.	(4d-\	-lu-	.	(4B-\	-lu-	.	4E-\	.	4e-/	.	4b-\	.	4E-\	.	4E-\	.	2b-\	.	8r	.
.	.	.	.	.	.	.	.	.	.	.	.	.	.	.	.	.	.	.	.	.	(8b-\L	.
4G\)	.	.	4B-\)	.	.	4e-\)	.	.	4E-\	.	4e-/	.	4b-\	.	4E-\	.	4G\	.	.	.	8ee-\	.
.	.	.	.	.	.	.	.	.	.	.	.	.	.	.	.	.	.	.	.	.	8dd-\J)	.
!	!	!	!	!	!	!	!	!	!LO:LB:g=original	!	!	!	!LO:LB:g=original	!	!	!	!	!	!LO:LB:g=original	!	!	!
=28	=28	=28	=28	=28	=28	=28	=28	=28	=28	=28	=28	=28	=28	=28	=28	=28	=28	=28	=28	=28	=28	=28
4A-\	-ia	.	4A-\	-ia	.	4A-\	-ia	.	4AA-/	.	4c/	.	4a-\	.	4AA-/	.	4A-\	.	4a-\	.	8cc\L	.
.	.	.	.	.	.	.	.	.	.	.	.	.	.	.	.	.	.	.	.	.	8a-\	.
4r	.	.	4r	.	.	4r	.	.	4r	.	4r	.	4r	.	4r	.	4r	.	4r	.	8cc\	.
.	.	.	.	.	.	.	.	.	.	.	.	.	.	.	.	.	.	.	.	.	8ee-\J	.
2r	.	.	2r	.	.	2r	.	.	2r	.	2r	.	2r	.	2r	.	2r	.	2r	.	8aa-\L	.
.	.	.	.	.	.	.	.	.	.	.	.	.	.	.	.	.	.	.	.	.	8ee-\	.
.	.	.	.	.	.	.	.	.	.	.	.	.	.	.	.	.	.	.	.	.	8dd-X\	.
.	.	.	.	.	.	.	.	.	.	.	.	.	.	.	.	.	.	.	.	.	8cc\J	.
!	!	!	!LO:PB:g=original	!	!	!LO:LB:g=original	!	!	!	!	!	!	!	!	!	!	!	!	!	!	!	!
=29	=29	=29	=29	=29	=29	=29	=29	=29	=29	=29	=29	=29	=29	=29	=29	=29	=29	=29	=29	=29	=29	=29
4E-\	al-	.	(8G\L	al-	.	(8B-\L	al-	.	2E-\	.	2e-/	.	2b-\	.	2E-\	.	8d-X\L	.	8g\L	.	8b-\L	.
.	.	.	8F#X\J)	.	.	8An\J)	.	.	.	.	.	.	.	.	.	.	8c\	.	8f#X\	.	8a\	.
4E-\	-le-	.	(8G\L	-le-	.	(8B-\L	-le-	.	.	.	.	.	.	.	.	.	8B-\	.	8g\	.	8b-\	.
.	.	.	8A-\J)	.	.	8c\J)	.	.	.	.	.	.	.	.	.	.	8c\J	.	8a-\J	.	8cc\J	.
4E-\	-lu-	.	(4B-\	-lu-	.	(4d-X\	-lu-	.	4E-\	.	4e-/	.	4b-\	.	4E-\	.	4d-\	.	4b-\	.	4dd-\	.
4E-\	.	.	4G\)	.	.	4e-\)	.	.	4E-\	.	4e-/	.	4b-\	.	4E-\	.	4d-\	.	4g\	.	4ee-\	.
!	!	!	!	!	!	!	!	!	!	!	!LO:LB:g=original	!	!	!	!	!	!	!	!	!	!LO:LB:g=original	!
=30	=30	=30	=30	=30	=30	=30	=30	=30	=30	=30	=30	=30	=30	=30	=30	=30	=30	=30	=30	=30	=30	=30
4A-\	-ia	.	4A-\	-ia	.	4c\	-ia	.	4AA-/	.	4c/	.	4a-\	.	4A-\	.	4c\	.	4a-\	.	12cc\L	.
.	.	.	.	.	.	.	.	.	.	.	.	.	.	.	.	.	.	.	.	.	12a-\	.
.	.	.	.	.	.	.	.	.	.	.	.	.	.	.	.	.	.	.	.	.	12cc\J	.
4r	.	.	4r	.	.	4r	.	.	4r	.	4r	.	4r	.	4r	.	4r	.	4r	.	12ee-\L	.
.	.	.	.	.	.	.	.	.	.	.	.	.	.	.	.	.	.	.	.	.	12cc\	.
.	.	.	.	.	.	.	.	.	.	.	.	.	.	.	.	.	.	.	.	.	12ee-\J	.
2r	.	.	2r	.	.	2r	.	.	2r	.	2r	.	2r	.	2r	.	2r	.	2r	.	12aa-\L	.
.	.	.	.	.	.	.	.	.	.	.	.	.	.	.	.	.	.	.	.	.	12ee-\	.
.	.	.	.	.	.	.	.	.	.	.	.	.	.	.	.	.	.	.	.	.	12cc\J	.
.	.	.	.	.	.	.	.	.	.	.	.	.	.	.	.	.	.	.	.	.	12ee-\L	.
.	.	.	.	.	.	.	.	.	.	.	.	.	.	.	.	.	.	.	.	.	12cc\	.
.	.	.	.	.	.	.	.	.	.	.	.	.	.	.	.	.	.	.	.	.	12a-\J	.
!LO:LB:g=original	!	!	!	!	!	!	!	!	!	!	!	!	!	!	!	!	!	!	!	!	!	!
=31	=31	=31	=31	=31	=31	=31	=31	=31	=31	=31	=31	=31	=31	=31	=31	=31	=31	=31	=31	=31	=31	=31
4E-\	al-	.	(8G\L	al-	.	(8B-\L	al-	.	2E-\	.	2e-/	.	2b-\	.	2E-\	.	8d-X\L	.	8g\L	.	8b-\L	.
.	.	.	8F#X\J)	.	.	8An\J)	.	.	.	.	.	.	.	.	.	.	8c\	.	8f#X\	.	8a\	.
4E-\	-le-	.	(8G\L	-le-	.	(8B-\L	-le-	.	.	.	.	.	.	.	.	.	8B-\	.	8g\	.	8b-\	.
.	.	.	8A-\J)	.	.	8c\J)	.	.	.	.	.	.	.	.	.	.	8c\J	.	8a-\J	.	8cc\J	.
[4E-\	-lu-	.	(4B-\	-lu-	.	(4d-\	-lu-	.	4E-\	.	4e-/	.	4b-\	.	4E-\	.	4d-\	.	4b-\	.	4dd-\	.
4E-\]	.	.	4D-/)	.	.	4B-\)	.	.	4E-\	.	4e-/	.	4b-\	.	4E-\	.	4B-\	.	4g\	.	4ee-\	.
!	!	!	!	!	!	!LO:LB:g=original	!	!	!	!	!	!	!	!	!LO:LB:g=original	!	!	!	!	!	!	!
=32	=32	=32	=32	=32	=32	=32	=32	=32	=32	=32	=32	=32	=32	=32	=32	=32	=32	=32	=32	=32	=32	=32
4AA-/	-ia	.	4C/	-ia	.	4A-\	-ia	.	4AA-/	.	4c/	.	4a-\	.	4AA-/	.	4A-\	.	4a-\	.	4a-\	.
4r	.	.	4r	.	.	4r	.	.	4r	.	8r	.	8r	.	4r	.	4r	.	8r	.	8r	.
.	.	.	.	.	.	.	.	.	.	.	8E-/	.	8E-/	.	.	.	.	.	8E-/	.	8e-/	.
2r	.	.	2r	.	.	2r	.	.	2r	.	8c/L	.	8c/L	.	2r	.	2r	.	8c/L	.	8cc\L	.
.	.	.	.	.	.	.	.	.	.	.	8A-/	.	8A-/	.	.	.	.	.	8A-/	.	8a-\	.
.	.	.	.	.	.	.	.	.	.	.	8e-/	.	8e-/	.	.	.	.	.	8e-/	.	8ee-\	.
.	.	.	.	.	.	.	.	.	.	.	8c/J	.	8c/J	.	.	.	.	.	8c/J	.	8cc\J	.
!	!	!	!LO:LB:g=original	!	!	!	!	!	!	!	!	!	!	!	!	!	!LO:LB:g=original	!	!	!	!	!
=33	=33	=33	=33	=33	=33	=33	=33	=33	=33	=33	=33	=33	=33	=33	=33	=33	=33	=33	=33	=33	=33	=33
!LO:TX:a:t=2	!	!	!LO:TX:a:t=2	!	!	!LO:TX:a:t=2	!	!	!	!	!	!	!	!	!	!	!	!	!	!	!	!
0r	.	.	0r	.	.	0r	.	.	4AA-/	.	4A-/	.	4a-\	.	4AA-/	.	4AA-/	.	4a-\	.	4aa-\	.
.	.	.	.	.	.	.	.	.	4A-\	.	4r	.	4r	.	4A-\	.	4A-\	.	4r	.	4r	.
.	.	.	.	.	.	.	.	.	4E-\	.	4c/	.	4a-\	.	4E-\	.	4E-\	.	4c/	.	4a-\	.
.	.	.	.	.	.	.	.	.	4C\	.	4c/	.	4a-\	.	4C/	.	4C/	.	4c/	.	4a-\	.
=34	=34	=34	=34	=34	=34	=34	=34	=34	=34	=34	=34	=34	=34	=34	=34	=34	=34	=34	=34	=34	=34	=34
.	.	.	.	.	.	.	.	.	4AA-/	.	4c/	.	4a-\	.	4AA-/	.	4AA-/	.	4c/	.	4a-\	.
.	.	.	.	.	.	.	.	.	4r	.	4r	.	4r	.	4r	.	4r	.	4r	.	4r	.
.	.	.	.	.	.	.	.	.	4A-\	.	4c/	.	4a-\	.	4AA-/	.	4E-\	.	4c/	.	4a-\	.
.	.	.	.	.	.	.	.	.	4r	.	4r	.	4r	.	4r	.	4r	.	4r	.	4r	.
=35	=35	=35	=35	=35	=35	=35	=35	=35	=35	=35	=35	=35	=35	=35	=35	=35	=35	=35	=35	=35	=35	=35
!	!	!	!	!	!	!LO:TX:a:t=P:problem:klamra łukowa	!	!	!	!	!	!	!	!	!	!	!	!	!	!	!	!
!LO:TX:a:t=1	!	!	!	!	!	!LO:TX:a:t=1	!	!	!	!	!	!	!	!	!	!	!	!	!	!	!	!
1r;	.	.	1r;	.	.	1r;	.	.	1AA-;	.	1c;	.	1a-;	.	1AA-;	.	1E-;	.	1c;	.	1a-;	.
==;;	==	==	==;;	==	==	==;;	==	==	==;;	==	==;;	==	==;;	==	==;;	==	==;;	==	==;;	==	==;;	==
*-	*-	*-	*-	*-	*-	*-	*-	*-	*-	*-	*-	*-	*-	*-	*-	*-	*-	*-	*-	*-	*-	*-
!!!system-decoration: [(g1)][(g2)][(g3)]
!!!RDF**kern: >= above
!!!RDF**kern: <= below
!!!AIN: 2 clars 2 cor 1 empty 2 fagot 2 tenor 1 tromt
!!!ENC: Anna Matuszewska
!!!END: 2020-12-27
!!!ENC: Andrzej Kubiczek
!!!END: 2020-07-01
